; generated by PrusaSlicer 2.7.4+MacOS-x64 on 2024-05-08 at 22:22:34 UTC


;
;
; 

; external perimeters extrusion width = 0.45mm
; perimeters extrusion width = 0.45mm
; infill extrusion width = 0.45mm
; solid infill extrusion width = 0.45mm
; top infill extrusion width = 0.40mm
; support material extrusion width = 0.35mm
; first layer extrusion width = 0.42mm

M73 P0 R71
M73 Q0 S72
M201 X1000 Y1000 Z200 E5000 ; sets maximum accelerations, mm/sec^2
M203 X200 Y200 Z12 E120 ; sets maximum feedrates, mm / sec
M204 S1250 T1250 ; sets acceleration (S) and retract acceleration (R), mm/sec^2
M205 X8.00 Y8.00 Z0.40 E4.50 ; sets the jerk limits, mm/sec
M205 S0 T0 ; sets the minimum extruding and travel feed rate, mm/sec

; printing object connector final.stl id:0 copy 0
; stop printing object connector final.stl id:0 copy 0

;TYPE:Custom
M862.3 P "MK3S" ; printer model check
M862.1 P0.4 ; nozzle diameter check
M115 U3.13.2 ; tell printer latest fw version
G90 ; use absolute coordinates
M83 ; extruder relative mode
M104 S215 ; set extruder temp
M140 S60 ; set bed temp
M190 S60 ; wait for bed temp
M109 S215 ; wait for extruder temp
G28 W ; home all without mesh bed level
G80 X101.034 Y78.7272 W45.6243 H52.5456 ; mesh bed levelling

G1 Z0.2 F720
G1 Y-3 F1000 ; go outside print area
G92 E0
G1 X60 E9 F1000 ; intro line
G1 X100 E12.5 F1000 ; intro line

G92 E0
M221 S95

; Don't change E values below. Excessive value can damage the printer.

G21 ; set units to millimeters
G90 ; use absolute coordinates
M83 ; use relative distances for extrusion

M900 K0.05 ; Filament gcode LA 1.5
M900 K30 ; Filament gcode LA 1.0




M107
;LAYER_CHANGE
;Z:0.2
;HEIGHT:0.2
G1 E-.8 F2100
G1 Z.6 F720
M73 Q0 S71
G1 X103.781 Y80.23 F10800
G1 Z.2 F720
G1 E.8 F2100
M204 S800
;TYPE:Skirt/Brim
;WIDTH:0.42
G1 F1200
G1 X104.716 Y79.236 E.04279
G1 X105.907 Y78.916 E.03867
G1 X144.093 Y78.916 E1.1973
G1 X145.4 Y79.307 E.04277
G1 X146.276 Y80.353 E.04278
G1 X146.47 Y81.293 E.03009
G1 X146.47 Y128.707 E1.48663
G1 X146.079 Y130.014 E.04277
G1 X145.033 Y130.891 E.0428
G1 X144.093 Y131.084 E.03009
G1 X105.907 Y131.084 E1.1973
G1 X104.6 Y130.693 E.04277
G1 X103.781 Y129.77 E.03869
G1 X101.474 Y125.156 E.16174
G1 X101.223 Y124.093 E.03425
G1 X101.223 Y85.907 E1.1973
G1 X101.474 Y84.844 E.03425
G1 X103.754 Y80.283 E.15988
M204 S1000
;WIPE_START
G1 F8640
G1 X103.781 Y80.23 E-.01373
G1 X104.716 Y79.236 E-.3151
G1 X105.907 Y78.916 E-.28476
G1 X106.714 Y78.916 E-.18641
;WIPE_END
G1 Z.6 F720
; printing object connector final.stl id:0 copy 0
G1 X111.309 Y125.764 F10800
G1 Z.2 F720
G1 E.8 F2100
M204 S800
;TYPE:Support material interface
;WIDTH:0.35
G1 F1200
G1 X111.309 Y84.236 E1.06037
G1 X111.816 Y84.236 E.01295
G1 X111.816 Y84.659 E.0108
G1 X111.65 Y84.825 E.00599
G1 X111.65 Y125.175 E1.03029
G1 X111.816 Y125.341 E.00599
G1 X111.816 Y125.764 E.0108
G1 X112.323 Y125.764 E.01295
G1 X112.323 Y125.424 E.00868
G1 X112.503 Y125.424 E.0046
G1 X112.83 Y125.424 E.00835
G1 X112.83 Y125.764 E.00868
G1 X113.337 Y125.764 E.01295
G1 X113.337 Y125.424 E.00868
M204 S1000
;WIPE_START
G1 F8640
G1 X113.337 Y125.764 E-.07851
G1 X112.83 Y125.764 E-.11707
G1 X112.83 Y125.424 E-.07851
G1 X112.503 Y125.424 E-.07551
G1 X112.323 Y125.424 E-.04156
G1 X112.323 Y125.764 E-.07851
G1 X111.816 Y125.764 E-.11707
G1 X111.816 Y125.341 E-.09767
G1 X111.65 Y125.175 E-.05421
G1 X111.65 Y124.909 E-.06138
;WIPE_END
G1 Z.6 F720
G1 X112.33 Y125.06 F10800
G1 Z.2 F720
G1 E.8 F2100
M204 S800
;TYPE:Support material
;WIDTH:0.42
G1 F1200
G1 X112.014 Y125.025 E.00997
G1 X112.049 Y84.94 E1.25684
G1 X112.33 Y84.94 E.00881
M73 P0 R70
G1 X112.33 Y125.003 E1.25615
M204 S1000
;WIPE_START
G1 F8640
G1 X112.33 Y121.538 E-.8
;WIPE_END
G1 Z.6 F720
G1 X136.663 Y125.764 F10800
G1 Z.2 F720
G1 E.8 F2100
M204 S800
;TYPE:Support material interface
;WIDTH:0.35
G1 F1200
G1 X136.663 Y125.424 E.00868
G1 X137.17 Y125.424 E.01295
G1 X137.17 Y125.764 E.00868
G1 X137.677 Y125.764 E.01295
G1 X137.677 Y125.424 E.00868
G1 X138.065 Y125.424 E.00991
M204 S1000
;WIPE_START
G1 F8640
G1 X137.677 Y125.424 E-.08959
G1 X137.677 Y125.764 E-.07851
G1 X137.17 Y125.764 E-.11707
G1 X137.17 Y125.424 E-.07851
G1 X136.663 Y125.424 E-.11707
G1 X136.663 Y125.764 E-.07851
;WIPE_END
G1 E-.24074 F2100
G1 Z.6 F720
G1 X144.093 Y128.707 F10800
G1 Z.2 F720
G1 E.8 F2100
M204 S800
;TYPE:Support material
;WIDTH:0.42
G1 F1200
G1 X136.206 Y128.707 E.24729
G1 X136.206 Y126.127 E.08089
G1 X139.206 Y126.127 E.09406
G1 X139.206 Y83.873 E1.32484
G1 X136.206 Y83.873 E.09406
G1 X136.206 Y81.293 E.08089
G1 X144.093 Y81.293 E.24729
G1 X144.093 Y128.651 E1.48488
M204 S1000
G1 X144.093 Y128.651 F10800
G1 X143.435 Y128.537
M204 S800
G1 F1200
G1 X143.435 Y81.632 E1.47067
G1 X143.016 Y81.632 E.01314
G1 X143.016 Y128.368 E1.46537
G1 X142.597 Y128.368 E.01314
G1 X142.597 Y81.632 E1.46537
G1 X142.178 Y81.632 E.01314
G1 X142.178 Y128.368 E1.46537
G1 X141.759 Y128.368 E.01314
M73 P1 R70
M73 Q1 S71
G1 X141.759 Y81.632 E1.46537
G1 X141.34 Y81.632 E.01314
G1 X141.34 Y128.368 E1.46537
G1 X140.921 Y128.368 E.01314
G1 X140.921 Y81.632 E1.46537
G1 X140.502 Y81.632 E.01314
G1 X140.502 Y128.368 E1.46537
G1 X140.083 Y128.368 E.01314
G1 X140.083 Y81.632 E1.46537
G1 X139.664 Y81.632 E.01314
G1 X139.664 Y128.368 E1.46537
G1 X139.245 Y128.368 E.01314
G1 X139.245 Y126.467 E.0596
G1 X138.826 Y126.467 E.01314
G1 X138.826 Y128.368 E.0596
G1 X138.407 Y128.368 E.01314
G1 X138.407 Y126.467 E.0596
G1 X137.988 Y126.467 E.01314
G1 X137.988 Y128.368 E.0596
G1 X137.569 Y128.368 E.01314
G1 X137.569 Y126.467 E.0596
G1 X137.15 Y126.467 E.01314
G1 X137.15 Y128.368 E.0596
G1 X136.731 Y128.368 E.01314
G1 X136.731 Y126.297 E.06493
M204 S1000
;WIPE_START
G1 F8640
G1 X136.731 Y128.368 E-.4782
G1 X137.15 Y128.368 E-.09675
G1 X137.15 Y127.393 E-.22505
;WIPE_END
G1 Z.6 F720
G1 X139.245 Y83.703 F10800
G1 Z.2 F720
G1 E.8 F2100
M204 S800
G1 F1200
G1 X139.245 Y81.632 E.06493
G1 X138.826 Y81.632 E.01314
G1 X138.826 Y83.533 E.0596
G1 X138.407 Y83.533 E.01314
G1 X138.407 Y81.632 E.0596
G1 X137.988 Y81.632 E.01314
G1 X137.988 Y83.533 E.0596
G1 X137.569 Y83.533 E.01314
G1 X137.569 Y81.632 E.0596
G1 X137.15 Y81.632 E.01314
G1 X137.15 Y83.533 E.0596
G1 X136.731 Y83.533 E.01314
G1 X136.731 Y81.463 E.0649
M204 S1000
;WIPE_START
G1 F8640
G1 X136.731 Y83.533 E-.47797
G1 X137.15 Y83.533 E-.09675
G1 X137.15 Y82.557 E-.22528
;WIPE_END
G1 Z.6 F720
G1 X136.663 Y84.576 F10800
G1 Z.2 F720
G1 E.8 F2100
M204 S800
;TYPE:Support material interface
;WIDTH:0.35
G1 F1200
G1 X136.663 Y84.236 E.00868
G1 X137.17 Y84.236 E.01295
G1 X137.17 Y84.576 E.00868
G1 X137.677 Y84.576 E.01295
G1 X137.677 Y84.236 E.00868
G1 X138.184 Y84.236 E.01295
G1 X138.184 Y84.659 E.0108
G1 X138.35 Y84.825 E.00599
G1 X138.35 Y125.175 E1.03029
G1 X138.184 Y125.341 E.00599
G1 X138.184 Y125.764 E.0108
G1 X138.691 Y125.764 E.01295
G1 X138.691 Y84.236 E1.06037
M204 S1000
;WIPE_START
G1 F8640
G1 X138.691 Y87.701 E-.8
;WIPE_END
G1 Z.6 F720
G1 X137.986 Y84.975 F10800
G1 Z.2 F720
G1 E.8 F2100
M204 S800
;TYPE:Support material
;WIDTH:0.42
G1 F1200
G1 X137.986 Y125.025 E1.25574
G1 X137.67 Y125.06 E.00997
M73 Q1 S70
G1 X137.67 Y84.94 E1.25793
G1 X137.944 Y84.94 E.00859
M204 S1000
;WIPE_START
G1 F8640
G1 X137.67 Y84.94 E-.06327
G1 X137.67 Y88.131 E-.73673
;WIPE_END
G1 Z.6 F720
G1 X113.794 Y83.873 F10800
G1 Z.2 F720
G1 E.8 F2100
M204 S800
G1 F1200
G1 X110.794 Y83.873 E.09406
G1 X110.794 Y126.127 E1.32484
G1 X113.794 Y126.127 E.09406
G1 X113.794 Y128.707 E.08089
G1 X105.907 Y128.707 E.24729
G1 X105.907 Y124.093 E.14467
G1 X103.6 Y124.093 E.07233
G1 X103.6 Y111.285 E.40159
G1 X105.907 Y111.285 E.07233
G1 X105.907 Y98.715 E.39412
G1 X103.6 Y98.715 E.07233
G1 X103.6 Y85.907 E.40159
G1 X105.907 Y85.907 E.07233
G1 X105.907 Y81.293 E.14467
G1 X113.794 Y81.293 E.24729
G1 X113.794 Y83.816 E.07911
M204 S1000
;WIPE_START
G1 F8640
G1 X113.794 Y81.293 E-.58257
G1 X112.852 Y81.293 E-.21743
;WIPE_END
G1 Z.6 F720
G1 X113.269 Y128.537 F10800
G1 Z.2 F720
G1 E.8 F2100
M204 S800
G1 F1200
G1 X113.269 Y126.467 E.0649
G1 X112.85 Y126.467 E.01314
G1 X112.85 Y128.368 E.0596
G1 X112.431 Y128.368 E.01314
G1 X112.431 Y126.467 E.0596
G1 X112.012 Y126.467 E.01314
G1 X112.012 Y128.368 E.0596
G1 X111.593 Y128.368 E.01314
G1 X111.593 Y126.467 E.0596
G1 X111.174 Y126.467 E.01314
G1 X111.174 Y128.368 E.0596
G1 X110.755 Y128.368 E.01314
G1 X110.755 Y126.467 E.0596
G1 X110.455 Y126.467 E.00941
G1 X110.455 Y83.533 E1.34617
G1 X110.755 Y83.533 E.00941
G1 X110.755 Y81.632 E.0596
G1 X111.174 Y81.632 E.01314
G1 X111.174 Y83.533 E.0596
G1 X111.593 Y83.533 E.01314
G1 X111.593 Y81.632 E.0596
G1 X112.012 Y81.632 E.01314
G1 X112.012 Y83.533 E.0596
G1 X112.431 Y83.533 E.01314
G1 X112.431 Y81.632 E.0596
G1 X112.85 Y81.632 E.01314
G1 X112.85 Y83.533 E.0596
G1 X113.269 Y83.533 E.01314
G1 X113.269 Y81.463 E.0649
M204 S1000
;WIPE_START
G1 F8640
G1 X113.269 Y83.533 E-.47797
G1 X112.85 Y83.533 E-.09675
G1 X112.85 Y82.557 E-.22528
;WIPE_END
G1 Z.6 F720
G1 X110.336 Y128.537 F10800
G1 Z.2 F720
G1 E.8 F2100
M204 S800
G1 F1200
G1 X110.336 Y81.632 E1.47067
G1 X109.917 Y81.632 E.01314
M73 P1 R69
G1 X109.917 Y128.368 E1.46537
G1 X109.498 Y128.368 E.01314
M73 P2 R69
M73 Q2 S70
G1 X109.498 Y81.632 E1.46537
G1 X109.079 Y81.632 E.01314
G1 X109.079 Y128.368 E1.46537
G1 X108.66 Y128.368 E.01314
G1 X108.66 Y81.632 E1.46537
G1 X108.241 Y81.632 E.01314
G1 X108.241 Y128.368 E1.46537
G1 X107.822 Y128.368 E.01314
G1 X107.822 Y81.632 E1.46537
G1 X107.403 Y81.632 E.01314
G1 X107.403 Y128.368 E1.46537
G1 X106.984 Y128.368 E.01314
G1 X106.984 Y81.632 E1.46537
G1 X106.565 Y81.632 E.01314
G1 X106.565 Y128.368 E1.46537
G1 X106.246 Y128.368 E.01
G1 X106.246 Y123.754 E.14467
G1 X106.146 Y123.754 E.00314
G1 X106.146 Y86.246 E1.17604
G1 X105.727 Y86.246 E.01314
G1 X105.727 Y98.376 E.38033
G1 X105.308 Y98.376 E.01314
G1 X105.308 Y86.246 E.38033
G1 X104.889 Y86.246 E.01314
G1 X104.889 Y98.376 E.38033
G1 X104.47 Y98.376 E.01314
G1 X104.47 Y86.246 E.38033
G1 X104.051 Y86.246 E.01314
G1 X104.051 Y98.545 E.38563
M204 S1000
;WIPE_START
G1 F8640
G1 X104.051 Y95.08 E-.8
;WIPE_END
G1 Z.6 F720
G1 X105.727 Y123.923 F10800
G1 Z.2 F720
G1 E.8 F2100
M204 S800
G1 F1200
G1 X105.727 Y111.624 E.38563
G1 X105.308 Y111.624 E.01314
G1 X105.308 Y123.754 E.38033
G1 X104.889 Y123.754 E.01314
G1 X104.889 Y111.624 E.38033
G1 X104.47 Y111.624 E.01314
G1 X104.47 Y123.754 E.38033
G1 X104.051 Y123.754 E.01314
G1 X104.051 Y111.455 E.38563
M204 S1000
;WIPE_START
G1 F8640
G1 X104.051 Y114.92 E-.8
;WIPE_END
G1 Z.6 F720
G1 X111.935 Y84.576 F10800
G1 Z.2 F720
G1 E.8 F2100
M204 S800
;TYPE:Support material interface
;WIDTH:0.35
G1 F1200
G1 X112.323 Y84.576 E.00991
G1 X112.323 Y84.236 E.00868
G1 X112.83 Y84.236 E.01295
G1 X112.83 Y84.576 E.00868
G1 X113.337 Y84.576 E.01295
G1 X113.337 Y84.236 E.00868
M204 S1000
;WIPE_START
G1 F8640
G1 X113.337 Y84.576 E-.07851
G1 X112.83 Y84.576 E-.11707
G1 X112.83 Y84.236 E-.07851
G1 X112.323 Y84.236 E-.11707
G1 X112.323 Y84.576 E-.07851
G1 X111.935 Y84.576 E-.08959
;WIPE_END
G1 E-.24074 F2100
G1 Z.6 F720
G1 X136.403 Y124.213 F10800
G1 Z.2 F720
G1 E.8 F2100
M204 S800
;TYPE:Perimeter
;WIDTH:0.419999
G1 F1200
G1 X113.597 Y124.213 E.71506
G1 X113.597 Y85.787 E1.20482
G1 X136.403 Y85.787 E.71506
G1 X136.403 Y92.12 E.19857
G1 X136.403 Y124.153 E1.00437
M204 S1000
G1 X136.403 Y124.153 F10800
G1 X136.78 Y124.59
M204 S800
;TYPE:External perimeter
G1 F1200
G1 X113.22 Y124.59 E.73871
G1 X113.22 Y85.41 E1.22846
G1 X136.78 Y85.41 E.73871
M73 Q2 S69
G1 X136.78 Y92.12 E.21039
G1 X136.78 Y124.53 E1.01619
M204 S1000
;WIPE_START
G1 F8640
M73 P3 R69
M73 Q3 S69
G1 X136.78 Y124.59 E-.01385
G1 X133.375 Y124.59 E-.78615
;WIPE_END
G1 Z.6 F720
G1 X123.616 Y97.188 F10800
G1 Z.2 F720
G1 E.8 F2100
M204 S800
;TYPE:Perimeter
G1 F1200
G1 X123.267 Y97.432 E.01335
G1 X122.709 Y97.634 E.01861
G1 X122.157 Y97.682 E.01737
G1 X121.617 Y97.59 E.01718
G1 X121.118 Y97.367 E.01714
G1 X120.721 Y97.06 E.01574
G1 X120.362 Y96.596 E.01839
G1 X120.159 Y96.13 E.01594
G1 X120.069 Y95.597 E.01695
G1 X120.123 Y95.007 E.01858
G1 X120.316 Y94.487 E.01739
G1 X120.597 Y94.072 E.01571
G1 X121.037 Y93.685 E.01837
G1 X121.489 Y93.452 E.01594
G1 X122.016 Y93.329 E.01697
G1 X122.609 Y93.347 E.0186
G1 X123.139 Y93.506 E.01735
G1 X123.571 Y93.761 E.01573
G1 X123.985 Y94.176 E.01838
G1 X124.246 Y94.612 E.01593
G1 X124.402 Y95.13 E.01696
G1 X124.422 Y95.723 E.0186
G1 X124.296 Y96.263 E.01739
G1 X124.069 Y96.709 E.01569
G1 X123.716 Y97.119 E.01696
G1 X123.665 Y97.154 E.00194
M204 S1000
G1 X123.665 Y97.154 F10800
G1 X123.257 Y96.986
M204 S800
;TYPE:External perimeter
G1 F1200
G1 X123.016 Y97.138 E.00893
G1 X122.544 Y97.284 E.01549
G1 X122.091 Y97.301 E.01421
G1 X121.648 Y97.205 E.01421
G1 X121.244 Y97.004 E.01415
G1 X120.929 Y96.735 E.01299
G1 X120.645 Y96.333 E.01543
G1 X120.498 Y95.948 E.01292
G1 X120.442 Y95.496 E.01428
G1 X120.51 Y95.006 E.01551
G1 X120.686 Y94.591 E.01413
G1 X120.935 Y94.259 E.01301
G1 X121.278 Y93.975 E.01396
G1 X121.693 Y93.78 E.01438
G1 X122.14 Y93.695 E.01427
G1 X122.634 Y93.733 E.01553
G1 X123.059 Y93.882 E.01412
G1 X123.406 Y94.109 E.013
G1 X123.738 Y94.472 E.01542
G1 X123.932 Y94.836 E.01293
G1 X124.044 Y95.277 E.01427
G1 X124.038 Y95.772 E.01552
G1 X123.915 Y96.206 E.01414
G1 X123.712 Y96.564 E.0129
G1 X123.402 Y96.894 E.0142
G1 X123.308 Y96.954 E.0035
M204 S1000
;WIPE_START
G1 F8640
G1 X123.257 Y96.986 E-.0139
G1 X123.016 Y97.138 E-.06579
G1 X122.544 Y97.284 E-.11408
G1 X122.091 Y97.301 E-.10467
G1 X121.648 Y97.205 E-.10466
G1 X121.244 Y97.004 E-.10419
G1 X120.929 Y96.735 E-.09565
G1 X120.645 Y96.333 E-.11365
G1 X120.516 Y95.996 E-.08341
;WIPE_END
G1 Z.6 F720
G1 X120.024 Y104.263 F10800
G1 Z.2 F720
G1 E.8 F2100
M204 S800
;TYPE:Perimeter
G1 F1200
G1 X120.174 Y103.597 E.02141
G1 X120.442 Y102.915 E.02298
G1 X120.81 Y102.282 E.02296
G1 X121.176 Y101.829 E.01826
G1 X121.67 Y101.348 E.02162
G1 X122.249 Y100.93 E.02239
G1 X122.862 Y100.613 E.02164
G1 X123.444 Y100.407 E.01936
G1 X123.881 Y100.293 E.01416
G1 X124.484 Y100.224 E.01903
G1 X125.342 Y100.25 E.02691
G1 X125.976 Y100.374 E.02026
G1 X126.546 Y100.571 E.01891
G1 X127.315 Y100.959 E.02701
G1 X127.902 Y101.398 E.02298
G1 X128.415 Y101.921 E.02297
G1 X128.842 Y102.517 E.02299
G1 X129.155 Y103.135 E.02172
G1 X129.399 Y103.862 E.02404
G1 X129.519 Y104.59 E.02313
G1 X129.525 Y105.323 E.02298
G1 X129.42 Y106.048 E.02297
G1 X129.205 Y106.749 E.02299
G1 X128.886 Y107.409 E.02298
G1 X128.47 Y108.012 E.02297
G1 X127.967 Y108.544 E.02296
G1 X127.534 Y108.882 E.01722
G1 X127.134 Y109.139 E.01491
G1 X126.668 Y109.385 E.01652
G1 X126.06 Y109.604 E.02026
G1 X125.433 Y109.732 E.02006
G1 X124.695 Y109.781 E.02319
G1 X124.002 Y109.721 E.02181
G1 X123.396 Y109.58 E.01951
G1 X123.091 Y109.49 E.00997
G1 X122.502 Y109.225 E.02025
G1 X122.059 Y108.946 E.01642
G1 X121.707 Y108.685 E.01374
G1 X121.332 Y108.35 E.01577
G1 X120.86 Y107.789 E.02299
G1 X120.48 Y107.162 E.02299
G1 X120.2 Y106.485 E.02297
G1 X120.027 Y105.773 E.02297
G1 X119.964 Y105.043 E.02297
G1 X120.013 Y104.322 E.02266
M204 S1000
G1 X120.013 Y104.322 F10800
G1 X120.389 Y104.353
M204 S800
;TYPE:External perimeter
G1 F1200
G1 X120.389 Y104.341 E.00038
G1 X120.541 Y103.683 E.02117
G1 X120.791 Y103.056 E.02116
G1 X121.135 Y102.475 E.02117
G1 X121.466 Y102.069 E.01642
G1 X121.921 Y101.63 E.01982
G1 X122.454 Y101.247 E.02058
G1 X123.016 Y100.957 E.01983
G1 X123.544 Y100.77 E.01756
G1 X123.925 Y100.668 E.01237
G1 X124.527 Y100.598 E.019
G1 X125.24 Y100.617 E.02236
G1 X125.905 Y100.744 E.02123
G1 X126.418 Y100.926 E.01707
G1 X127.135 Y101.29 E.02521
G1 X127.673 Y101.698 E.02117
G1 X128.143 Y102.183 E.02118
G1 X128.533 Y102.734 E.02117
G1 X128.817 Y103.302 E.01991
G1 X129.04 Y103.979 E.02235
G1 X129.146 Y104.648 E.02124
G1 X129.148 Y105.323 E.02116
G1 X129.047 Y105.991 E.02118
G1 X128.846 Y106.635 E.02115
G1 X128.548 Y107.241 E.02117
G1 X128.162 Y107.795 E.02117
G1 X127.695 Y108.283 E.02118
G1 X127.159 Y108.694 E.02118
G1 X126.567 Y109.018 E.02116
G1 X125.963 Y109.238 E.02016
G1 X125.361 Y109.362 E.01927
G1 X124.681 Y109.404 E.02136
G1 X124.045 Y109.346 E.02002
G1 X123.496 Y109.217 E.01768
G1 X122.853 Y108.969 E.02161
