; generated by PrusaSlicer 2.7.4+MacOS-x64 on 2024-05-05 at 19:21:02 UTC


;
;
; 

; external perimeters extrusion width = 0.45mm
; perimeters extrusion width = 0.45mm
; infill extrusion width = 0.45mm
; solid infill extrusion width = 0.45mm
; top infill extrusion width = 0.40mm
; support material extrusion width = 0.35mm
; first layer extrusion width = 0.42mm

M73 P0 R12
M73 Q0 S12
M201 X1000 Y1000 Z200 E5000 ; sets maximum accelerations, mm/sec^2
M203 X200 Y200 Z12 E120 ; sets maximum feedrates, mm / sec
M204 S1250 T1250 ; sets acceleration (S) and retract acceleration (R), mm/sec^2
M205 X8.00 Y8.00 Z0.40 E4.50 ; sets the jerk limits, mm/sec
M205 S0 T0 ; sets the minimum extruding and travel feed rate, mm/sec

; printing object pressfit new4.stl id:0 copy 0
; stop printing object pressfit new4.stl id:0 copy 0

;TYPE:Custom
M862.3 P "MK3S" ; printer model check
M862.1 P0.4 ; nozzle diameter check
M115 U3.13.2 ; tell printer latest fw version
G90 ; use absolute coordinates
M83 ; extruder relative mode
M104 S215 ; set extruder temp
M140 S60 ; set bed temp
M190 S60 ; wait for bed temp
M109 S215 ; wait for extruder temp
G28 W ; home all without mesh bed level
G80 X112.193 Y92.1926 W25.6148 H25.6148 ; mesh bed levelling

G1 Z0.2 F720
G1 Y-3 F1000 ; go outside print area
G92 E0
G1 X60 E9 F1000 ; intro line
G1 X100 E12.5 F1000 ; intro line

G92 E0
M221 S95

; Don't change E values below. Excessive value can damage the printer.

G21 ; set units to millimeters
G90 ; use absolute coordinates
M83 ; use relative distances for extrusion

M900 K0.05 ; Filament gcode LA 1.5
M900 K30 ; Filament gcode LA 1.0




M107
;LAYER_CHANGE
;Z:0.2
;HEIGHT:0.2
G1 E-.8 F2100
G1 Z.6 F720
G1 X113.188 Y97.802 F10800
G1 Z.2 F720
M73 Q1 S12
G1 E.8 F2100
M204 S800
;TYPE:Skirt/Brim
;WIDTH:0.42
G1 F1200
G1 X117.802 Y93.188 E.20459
G1 X119.749 Y92.381 E.06608
M73 P1 R12
G1 X130.251 Y92.381 E.32928
G1 X132.198 Y93.188 E.06608
G1 X136.812 Y97.802 E.20459
G1 X137.619 Y99.749 E.06608
G1 X137.619 Y110.251 E.32928
G1 X136.812 Y112.198 E.06608
G1 X132.198 Y116.812 E.20459
G1 X130.251 Y117.619 E.06608
G1 X119.749 Y117.619 E.32928
G1 X117.802 Y116.812 E.06608
G1 X113.188 Y112.198 E.20459
G1 X112.381 Y110.251 E.06608
G1 X112.381 Y99.749 E.32928
G1 X113.165 Y97.857 E.06421
M204 S1000
G1 X113.165 Y97.857 F10800
G1 X113.454 Y98.069
M204 S800
G1 F1200
G1 X118.069 Y93.454 E.20464
G1 X119.749 Y92.758 E.05702
G1 X130.251 Y92.758 E.32928
G1 X131.931 Y93.454 E.05702
G1 X136.546 Y98.069 E.20464
G1 X137.242 Y99.749 E.05702
G1 X137.242 Y110.251 E.32928
G1 X136.546 Y111.931 E.05702
G1 X131.931 Y116.546 E.20464
G1 X130.251 Y117.242 E.05702
G1 X119.749 Y117.242 E.32928
G1 X118.069 Y116.546 E.05702
M73 Q2 S12
G1 X113.454 Y111.931 E.20464
G1 X112.758 Y110.251 E.05702
M73 P2 R12
G1 X112.758 Y99.749 E.32928
G1 X113.432 Y98.124 E.05516
M204 S1000
;WIPE_START
G1 F8640
G1 X113.454 Y98.069 E-.01368
G1 X115.862 Y95.661 E-.78632
;WIPE_END
G1 Z.6 F720
; printing object pressfit new4.stl id:0 copy 0
G1 X130.251 Y97.442 F10800
G1 Z.2 F720
G1 E.8 F2100
M204 S800
;TYPE:Support material
G1 F1200
G1 X132.558 Y97.442 E.07233
G1 X132.558 Y99.749 E.07233
G1 X134.865 Y99.749 E.07233
G1 X134.865 Y110.251 E.32928
G1 X132.558 Y110.251 E.07233
G1 X132.558 Y112.558 E.07233
G1 X130.251 Y112.558 E.07233
G1 X130.251 Y114.865 E.07233
G1 X119.749 Y114.865 E.32928
G1 X119.749 Y112.558 E.07233
G1 X117.442 Y112.558 E.07233
G1 X117.442 Y110.251 E.07233
M73 P2 R11
G1 X115.135 Y110.251 E.07233
G1 X115.135 Y99.749 E.32928
G1 X117.442 Y99.749 E.07233
G1 X117.442 Y97.442 E.07233
G1 X119.749 Y97.442 E.07233
G1 X119.749 Y95.135 E.07233
G1 X130.251 Y95.135 E.32928
G1 X130.251 Y97.386 E.07058
M204 S1000
G1 X130.251 Y97.386 F10800
G1 X123.015 Y102.52
M204 S800
G1 F1200
G1 X126.985 Y102.52 E.12448
G1 X127.164 Y102.596 E.0061
G1 X127.417 Y102.857 E.0114
G1 X127.754 Y103.314 E.0178
G1 X128.083 Y104.036 E.02488
G1 X128.227 Y105.149 E.03519
G1 X128.154 Y105.697 E.01733
G1 X127.882 Y106.458 E.02534
G1 X127.579 Y106.945 E.01798
G1 X127.164 Y107.404 E.0194
G1 X126.985 Y107.48 E.0061
G1 X123.015 Y107.48 E.12448
G1 X122.836 Y107.404 E.0061
M73 Q2 S11
G1 X122.583 Y107.143 E.0114
G1 X122.246 Y106.686 E.0178
G1 X121.917 Y105.964 E.02488
G1 X121.773 Y104.851 E.03519
G1 X121.911 Y104.055 E.02533
G1 X122.127 Y103.524 E.01797
G1 X122.583 Y102.857 E.02533
G1 X122.963 Y102.542 E.01548
M204 S1000
;WIPE_START
G1 F8640
G1 X122.583 Y102.857 E-.11397
G1 X122.127 Y103.524 E-.18656
G1 X121.911 Y104.055 E-.13237
G1 X121.773 Y104.851 E-.18654
G1 X121.874 Y105.627 E-.18056
;WIPE_END
G1 Z.6 F720
G1 X134.217 Y110.081 F10800
G1 Z.2 F720
G1 E.8 F2100
M73 Q3 S11
M204 S800
G1 F1200
G1 X134.217 Y100.089 E.31329
G1 X133.799 Y100.089 E.01311
M73 P3 R11
G1 X133.799 Y109.911 E.30796
G1 X133.38 Y109.911 E.01314
G1 X133.38 Y100.089 E.30796
G1 X132.961 Y100.089 E.01314
G1 X132.961 Y109.911 E.30796
G1 X132.542 Y109.911 E.01314
G1 X132.542 Y100.089 E.30796
G1 X132.218 Y100.089 E.01016
G1 X132.218 Y97.782 E.07233
G1 X132.123 Y97.782 E.00298
G1 X132.123 Y112.218 E.45263
G1 X131.704 Y112.218 E.01314
G1 X131.704 Y97.782 E.45263
G1 X131.285 Y97.782 E.01314
G1 X131.285 Y112.218 E.45263
G1 X130.866 Y112.218 E.01314
G1 X130.866 Y97.782 E.45263
G1 X130.447 Y97.782 E.01314
G1 X130.447 Y112.218 E.45263
G1 X130.028 Y112.218 E.01314
G1 X130.028 Y97.782 E.45263
G1 X129.911 Y97.782 E.00367
M73 Q4 S11
G1 X129.911 Y95.475 E.07233
G1 X129.609 Y95.475 E.00947
G1 X129.609 Y114.525 E.5973
G1 X129.19 Y114.525 E.01314
M73 P4 R11
G1 X129.19 Y95.475 E.5973
G1 X128.771 Y95.475 E.01314
G1 X128.771 Y114.525 E.5973
G1 X128.352 Y114.525 E.01314
G1 X128.352 Y106.22 E.2604
G1 X127.933 Y107.03 E.02859
G1 X127.933 Y114.525 E.235
G1 X127.514 Y114.525 E.01314
G1 X127.514 Y107.531 E.21929
G1 X127.095 Y107.802 E.01565
G1 X127.095 Y114.525 E.21079
G1 X126.676 Y114.525 E.01314
G1 X126.676 Y107.819 E.21026
G1 X126.257 Y107.819 E.01314
G1 X126.257 Y114.525 E.21026
G1 X125.838 Y114.525 E.01314
G1 X125.838 Y107.819 E.21026
G1 X125.419 Y107.819 E.01314
G1 X125.419 Y114.525 E.21026
G1 X125 Y114.525 E.01314
G1 X125 Y107.819 E.21026
G1 X124.581 Y107.819 E.01314
G1 X124.581 Y114.525 E.21026
G1 X124.162 Y114.525 E.01314
G1 X124.162 Y107.819 E.21026
G1 X123.743 Y107.819 E.01314
G1 X123.743 Y114.525 E.21026
M73 Q5 S11
G1 X123.324 Y114.525 E.01314
M73 P5 R11
G1 X123.324 Y107.819 E.21026
G1 X122.905 Y107.802 E.01315
G1 X122.905 Y114.525 E.21079
G1 X122.486 Y114.525 E.01314
G1 X122.486 Y107.531 E.21929
G1 X122.067 Y107.03 E.02048
G1 X122.067 Y114.525 E.235
G1 X121.648 Y114.525 E.01314
G1 X121.648 Y106.22 E.2604
G1 X121.462 Y105.475 E.02408
G1 X121.433 Y104.865 E.01915
G1 X121.648 Y103.78 E.03468
G1 X121.648 Y95.475 E.2604
G1 X122.067 Y95.475 E.01314
G1 X122.067 Y102.97 E.235
G1 X122.486 Y102.469 E.02048
G1 X122.486 Y95.475 E.21929
G1 X122.905 Y95.475 E.01314
G1 X122.905 Y102.198 E.21079
G1 X123.324 Y102.181 E.01315
G1 X123.324 Y95.475 E.21026
G1 X123.743 Y95.475 E.01314
G1 X123.743 Y102.181 E.21026
G1 X124.162 Y102.181 E.01314
G1 X124.162 Y95.475 E.21026
G1 X124.581 Y95.475 E.01314
G1 X124.581 Y102.181 E.21026
G1 X125 Y102.181 E.01314
G1 X125 Y95.475 E.21026
G1 X125.419 Y95.475 E.01314
G1 X125.419 Y102.181 E.21026
G1 X125.838 Y102.181 E.01314
G1 X125.838 Y95.475 E.21026
G1 X126.257 Y95.475 E.01314
G1 X126.257 Y102.181 E.21026
G1 X126.676 Y102.181 E.01314
G1 X126.676 Y95.475 E.21026
G1 X127.095 Y95.475 E.01314
M73 Q6 S11
G1 X127.095 Y102.198 E.21079
G1 X127.514 Y102.469 E.01565
M73 P6 R11
G1 X127.514 Y95.475 E.21929
G1 X127.933 Y95.475 E.01314
G1 X127.933 Y102.97 E.235
G1 X128.352 Y103.78 E.02859
G1 X128.352 Y95.305 E.26573
M204 S1000
;WIPE_START
G1 F8640
G1 X128.352 Y98.77 E-.8
;WIPE_END
G1 Z.6 F720
G1 X121.229 Y114.695 F10800
G1 Z.2 F720
G1 E.8 F2100
M204 S800
G1 F1200
G1 X121.229 Y95.475 E.60263
G1 X120.81 Y95.475 E.01314
G1 X120.81 Y114.525 E.5973
G1 X120.391 Y114.525 E.01314
G1 X120.391 Y95.475 E.5973
G1 X120.089 Y95.475 E.00947
G1 X120.089 Y97.782 E.07233
G1 X119.972 Y97.782 E.00367
G1 X119.972 Y112.218 E.45263
G1 X119.553 Y112.218 E.01314
G1 X119.553 Y97.782 E.45263
G1 X119.134 Y97.782 E.01314
G1 X119.134 Y112.218 E.45263
G1 X118.715 Y112.218 E.01314
M73 P7 R11
M73 Q7 S11
G1 X118.715 Y97.782 E.45263
G1 X118.296 Y97.782 E.01314
G1 X118.296 Y112.218 E.45263
G1 X117.877 Y112.218 E.01314
G1 X117.877 Y97.782 E.45263
G1 X117.782 Y97.782 E.00298
G1 X117.782 Y100.089 E.07233
G1 X117.458 Y100.089 E.01016
G1 X117.458 Y109.911 E.30796
G1 X117.039 Y109.911 E.01314
G1 X117.039 Y100.089 E.30796
G1 X116.62 Y100.089 E.01314
G1 X116.62 Y109.911 E.30796
G1 X116.201 Y109.911 E.01314
G1 X116.201 Y100.089 E.30796
G1 X115.783 Y100.089 E.01311
G1 X115.783 Y110.081 E.31329
M204 S1000
;WIPE_START
G1 F8640
G1 X115.783 Y106.616 E-.8
;WIPE_END
G1 Z.6 F720
G1 X123.479 Y106.213 F10800
G1 Z.2 F720
G1 E.8 F2100
M204 S800
;TYPE:Perimeter
;WIDTH:0.419999
G1 F1200
G1 X123.357 Y106.061 E.00611
G1 X123.189 Y105.749 E.01111
G1 X123.055 Y105.24 E.0165
G1 X123.054 Y104.815 E.01333
G1 X123.18 Y104.274 E.01742
G1 X123.463 Y103.787 E.01766
G1 X126.521 Y103.787 E.09588
G1 X126.643 Y103.939 E.00611
G1 X126.831 Y104.327 E.01352
G1 X126.95 Y104.884 E.01786
G1 X126.946 Y105.185 E.00944
G1 X126.82 Y105.726 E.01742
G1 X126.537 Y106.213 E.01766
G1 X123.539 Y106.213 E.094
M204 S1000
G1 X123.539 Y106.213 F10800
G1 X123.297 Y106.59
M204 S800
;TYPE:External perimeter
G1 F1200
G1 X123.063 Y106.296 E.01178
G1 X122.888 Y105.989 E.01108
G1 X122.722 Y105.455 E.01753
G1 X122.673 Y105.133 E.01021
G1 X122.699 Y104.621 E.01607
G1 X122.832 Y104.124 E.01613
G1 X123.109 Y103.634 E.01765
G1 X123.292 Y103.41 E.00907
G1 X126.703 Y103.41 E.10695
G1 X126.937 Y103.704 E.01178
G1 X127.112 Y104.011 E.01108
G1 X127.278 Y104.545 E.01753
G1 X127.327 Y104.867 E.01021
G1 X127.301 Y105.379 E.01607
G1 X127.168 Y105.876 E.01613
G1 X126.891 Y106.366 E.01765
G1 X126.708 Y106.59 E.00907
G1 X123.357 Y106.59 E.10507
M204 S1000
;WIPE_START
G1 F8640
G1 X123.297 Y106.59 E-.01385
G1 X123.063 Y106.296 E-.08676
G1 X122.888 Y105.989 E-.0816
G1 X122.722 Y105.455 E-.12912
G1 X122.673 Y105.133 E-.07521
G1 X122.699 Y104.621 E-.11837
G1 X122.832 Y104.124 E-.1188
G1 X123.109 Y103.634 E-.12997
G1 X123.236 Y103.479 E-.04632
;WIPE_END
G1 Z.6 F720
G1 X126.784 Y105.11 F10800
G1 Z.2 F720
M73 Q8 S11
G1 E.8 F2100
M204 S800
;TYPE:Solid infill
;WIDTH:0.437462
G1 F1200
G1 X125.8 Y104.126 E.04565
G1 X125.242 Y104.126 E.01831
M73 P8 R11
G1 X126.554 Y105.438 E.06087
G1 X126.507 Y105.591 E.00525
G1 X126.377 Y105.82 E.00864
G1 X124.684 Y104.126 E.07857
G1 X124.126 Y104.126 E.01831
G1 X125.873 Y105.874 E.08108
G1 X125.316 Y105.874 E.01827
G1 X123.622 Y104.181 E.07857
G1 X123.493 Y104.409 E.00859
G1 X123.446 Y104.562 E.00525
G1 X124.758 Y105.874 E.06087
G1 X124.2 Y105.874 E.01831
G1 X123.216 Y104.89 E.04565
M204 S1000
M106 S84.15
;LAYER_CHANGE
;Z:0.4
;HEIGHT:0.2
;BEFORE_LAYER_CHANGE
G92 E0.0
;0.4


;WIPE_START
G1 F8640
G1 X124.2 Y105.874 E-.32132
G1 X124.758 Y105.874 E-.12884
G1 X123.687 Y104.803 E-.34984
;WIPE_END
G1 Z.4 F720
;AFTER_LAYER_CHANGE
;0.4
M104 S210 ; set temperature
; stop printing object pressfit new4.stl id:0 copy 0
G1 Z.8
G1 X112.381 Y104.803 F10800
G1 Z.4 F720
G1 E.8 F2100
;TYPE:Skirt/Brim
;WIDTH:0.42
G1 F1389
G1 X112.381 Y99.749 E.15846
G1 X113.188 Y97.802 E.06608
G1 X117.802 Y93.188 E.20459
G1 X119.749 Y92.381 E.06608
G1 X130.251 Y92.381 E.32928
G1 X132.198 Y93.188 E.06608
G1 X136.812 Y97.802 E.20459
G1 X137.619 Y99.749 E.06608
G1 X137.619 Y110.251 E.32928
G1 X136.812 Y112.198 E.06608
G1 X132.198 Y116.812 E.20459
G1 X130.251 Y117.619 E.06608
G1 X119.749 Y117.619 E.32928
G1 X117.802 Y116.812 E.06608
G1 X113.188 Y112.198 E.20459
G1 X112.381 Y110.251 E.06608
G1 X112.381 Y104.863 E.16894
G1 X112.381 Y104.863 F10800
G1 X112.758 Y104.863
G1 F1389
G1 X112.758 Y99.749 E.16035
G1 X113.454 Y98.069 E.05702
G1 X118.069 Y93.454 E.20464
G1 X119.749 Y92.758 E.05702
G1 X130.251 Y92.758 E.32928
G1 X131.931 Y93.454 E.05702
G1 X136.546 Y98.069 E.20464
G1 X137.242 Y99.749 E.05702
G1 X137.242 Y110.251 E.32928
G1 X136.546 Y111.931 E.05702
G1 X131.931 Y116.546 E.20464
M73 Q9 S11
G1 X130.251 Y117.242 E.05702
M73 P9 R11
G1 X119.749 Y117.242 E.32928
G1 X118.069 Y116.546 E.05702
G1 X113.454 Y111.931 E.20464
G1 X112.758 Y110.251 E.05702
G1 X112.758 Y104.923 E.16706
;WIPE_START
G1 F8640
G1 X112.758 Y104.863 E-.01385
G1 X112.758 Y101.459 E-.78615
;WIPE_END
G1 Z.8 F720
; printing object pressfit new4.stl id:0 copy 0
G1 X123.396 Y106.368 F10800
G1 Z.4 F720
G1 E.8 F2100
M204 S800
;TYPE:Perimeter
;WIDTH:0.449999
G1 F1389
G1 X123.117 Y105.961 E.0167
G1 X122.931 Y105.438 E.01879
G1 X122.891 Y104.976 E.0157
G1 X122.955 Y104.489 E.01663
G1 X123.178 Y103.945 E.0199
G1 X123.411 Y103.633 E.01318
G1 X126.597 Y103.641 E.10784
G1 X126.764 Y103.846 E.00895
G1 X126.925 Y104.135 E.0112
G1 X127.067 Y104.55 E.01485
G1 X127.109 Y105.023 E.01607
G1 X127.04 Y105.537 E.01755
G1 X126.89 Y105.949 E.01484
G1 X126.603 Y106.368 E.01719
G1 X123.456 Y106.368 E.10652
M204 S1000
G1 X123.456 Y106.368 F10800
G1 X123.213 Y106.775
M204 S800
;TYPE:External perimeter
G1 F1389
G1 X123.018 Y106.556 E.00993
G1 X122.811 Y106.24 E.01279
G1 X122.591 Y105.696 E.01986
G1 X122.511 Y105.361 E.01166
G1 X122.49 Y104.823 E.01822
G1 X122.592 Y104.246 E.01983
G1 X122.858 Y103.666 E.0216
G1 X123.218 Y103.225 E.01927
G1 X126.791 Y103.235 E.12094
G1 X127.079 Y103.589 E.01545
G1 X127.287 Y103.95 E.0141
G1 X127.466 Y104.463 E.01839
G1 X127.515 Y105.041 E.01963
G1 X127.509 Y105.181 E.00474
G1 X127.411 Y105.746 E.01941
G1 X127.177 Y106.249 E.01878
G1 X126.792 Y106.775 E.02206
G1 X123.273 Y106.775 E.11911
M204 S1000
;WIPE_START
G1 F8640
G1 X123.213 Y106.775 E-.01385
G1 X123.018 Y106.556 E-.06771
G1 X122.811 Y106.24 E-.08723
G1 X122.591 Y105.696 E-.13549
G1 X122.511 Y105.361 E-.07953
G1 X122.49 Y104.823 E-.12432
G1 X122.592 Y104.246 E-.1353
G1 X122.858 Y103.666 E-.14734
G1 X122.883 Y103.635 E-.00923
;WIPE_END
G1 Z.8 F720
G1 X123.788 Y104 F10800
G1 Z.4 F720
G1 E.8 F2100
;TYPE:Solid infill
G1 F1389
G1 X126.422 Y104.007 E.08916
G1 X126.633 Y104.387 E.01471
G1 X126.746 Y104.925 E.01861
G1 X126.682 Y105.459 E.0182
G1 X126.539 Y105.813 E.01292
G1 X126.41 Y106.002 E.00775
G1 X123.576 Y106.002 E.09593
G1 X123.47 Y105.835 E.0067
G1 X123.29 Y105.352 E.01745
G1 X123.257 Y104.992 E.01224
G1 X123.33 Y104.493 E.01707
G1 X123.584 Y104 E.01877
G1 X123.817 Y104.407 E.01587
G1 X123.672 Y104.831 E.01517
G1 X123.688 Y105.257 E.01443
G1 X123.808 Y105.594 E.01211
G1 X126.195 Y105.594 E.0808
G1 X126.328 Y105.172 E.01498
G1 X126.309 Y104.715 E.01548
G1 X126.199 Y104.414 E.01085
G1 X124.02 Y104.408 E.07376
G1 X124.258 Y104.807 E.01573
;WIDTH:0.432314
G1 X124.085 Y104.806 E.0056
G1 X124.077 Y105.163 E.01156
G1 X124.119 Y105.196 E.00173
G1 X125.744 Y105.197 E.05261
;WIDTH:0.430323
G1 X125.916 Y105.197 E.00554
G1 X125.938 Y104.946 E.00812
G1 X125.92 Y104.81 E.00442
G1 X125.744 Y104.81 E.00567
;WIDTH:0.432042
G1 X124.462 Y104.807 E.04148
M106 S170.85
;LAYER_CHANGE
;Z:0.442105
;HEIGHT:0.0421053
;BEFORE_LAYER_CHANGE
G92 E0.0
;0.442105


;WIPE_START
G1 F8640
G1 X125.744 Y104.81 E-.29602
G1 X125.92 Y104.81 E-.04064
G1 X125.938 Y104.946 E-.03168
G1 X125.916 Y105.197 E-.05818
G1 X125.744 Y105.197 E-.03972
G1 X124.299 Y105.196 E-.33376
;WIPE_END
G1 Z.442 F720
;AFTER_LAYER_CHANGE
;0.442105
G1 Z.842
G1 X127.307 Y100.14 F10800
G1 Z.442 F720
G1 E.8 F2100
;TYPE:Support material
;WIDTH:0.35
;HEIGHT:0.242105
G1 F2141
G1 X127.307 Y98.079 E.06183
G1 X122.693 Y98.079 E.13842
G1 X122.693 Y100.14 E.06183
G1 X122.693 Y100.14 F10800
G1 X120.386 Y102.447
G1 F2141
G1 X120.386 Y100.386 E.06183
G1 X129.614 Y100.386 E.27684
G1 X129.614 Y102.447 E.06183
;WIPE_START
G1 F8640
G1 X129.614 Y100.386 E-.47589
G1 X128.21 Y100.386 E-.32411
;WIPE_END
G1 Z.842 F720
G1 X122.693 Y109.86 F10800
G1 Z.442 F720
G1 E.8 F2100
G1 F2141
G1 X122.693 Y111.921 E.06183
G1 X127.307 Y111.921 E.13842
G1 X127.307 Y109.86 E.06183
G1 X127.307 Y109.86 F10800
G1 X127.287 Y107.197
G1 F2141
G1 X127.689 Y106.686 E.01951
G1 X127.944 Y106.186 E.01684
G1 X128.103 Y105.666 E.01631
G1 X128.171 Y105 E.02008
G1 X131.921 Y105 E.1125
G1 X131.921 Y102.693 E.06921
